dist/img/icons/checked-circle-violet.svg

<svg width="30" height="30" viewBox="0 0 30 30" fill="none" xmlns="http://www.w3.org/2000/svg">
<path d="M15 30C23.2711 30 30 23.2712 30 15.0001C30 6.7291 23.2711 0 15 0C6.7289 0 0 6.7291 0 15.0001C0 23.2712 6.7289 30 15 30ZM7.74403 13.3973C8.62953 12.5123 10.0643 12.5123 10.9498 13.3973L13.1156 15.5633L19.0502 9.62857C19.9357 8.7436 21.3705 8.7436 22.256 9.62857C23.1412 10.5138 23.1412 11.9491 22.256 12.8343L14.7185 20.3717C14.2759 20.814 13.6959 21.0356 13.1156 21.0356C12.5354 21.0356 11.9554 20.8143 11.5128 20.3717L7.74403 16.603C6.8588 15.7178 6.8588 14.2822 7.74403 13.3973Z" fill="#7E20C8"/>
</svg>

<svg width="30" height="30" viewBox="0 0 30 30" fill="none" xmlns="http://www.w3.org/2000/svg"><path d="M15 30c8.271 0 15-6.729 15-15 0-8.27-6.729-15-15-15S0 6.73 0 15c0 8.271 6.729 15 15 15zM7.744 13.397a2.267 2.267 0 0 1 3.206 0l2.166 2.166L19.05 9.63a2.267 2.267 0 0 1 3.206 3.205l-7.537 7.538a2.26 2.26 0 0 1-1.603.664 2.26 2.26 0 0 1-1.603-.664l-3.769-3.769a2.267 2.267 0 0 1 0-3.206z" fill="#7E20C8"/></svg>
